X:1
T:The Girls Head for the Border
M:4/4
L:1/8
R:Dance
C:Doug Asherman
N:Copyright 2003 Doug Asherman
N:
N:Happy Mexican Vacation to Sandy and Patti.
K:D mix
A2 d2 d2 cd|e2 d2 d2 cd|e2 d2 c2 cd|
A2 G2 G4|A2 G2 G2 cd|e2 d2 d2 cd|
c2 AG FD C2|E2 D2 D4:|
|:A,G,G,G, G,2 A,C|EDDD D2 DE|
G2 GE D2 DE|CA,A,A, A,2 A,C|
A,G,G,G, G,2 A,C|EDDD D2 GA|
c2 AG FD C2|E2 D2 D4:|
"Tag " d2 d2 cAGF|DC E2 D4||
